X: 15797
T: Goodnatured Man, The
R: hornpipe
M: 4/4
K: Gmajor
d2|g2bg d2gd|BcdB G2AB|c2ec A2 ag|fgaf d2 ef|
g2bg d2gd|BcdB G2AB|cedc BAGF|Az G2 G2:|
Bc|dBdB g2g2|ecec a2a2|fdfd g2g2|fgaf d2 ef|
g2bg d2gd|BcdB G2AB|cedc BAGF|Az G2 G2:|

